X: 410
T: The Millers Wedding -- Strathspey
R: strathspey
B: Robert Bremner "A Collection of Scots Reels or Country Dances" 1757 p.41 #0 (scordatura)
S: http://imslp.org/wiki/A_Collection_of_Scots_Reels_or_Country_Dances_(Bremner,_Robert)
Z: 2013 John Chambers <jc:trillian.mit.edu>
N: Added missing flags in bars 1, 2, and to the last bass notes in some strains.
N: The low note in bar 1 is positioned like G, but has a leger line; treated as low G.
N: The final bar should probably be like the others, but what should be a low B is below the leger line.
P: Violin tuning: [eADG,]
M: C
L: 1/8
K: D
% - - - - - - - - - - - - - - - - - - - - - - - - -
V: 1
G, |\
[DD]<[DD] [DD]>A, [E2-B,2][EB,]F |\
A,>A, B,>A, [D2-D2][DD]F |\
[DD]<[DD] [DD]>A, [E-B,2]>DEF |\
A,<A, TB,>A, [D2-D2][DD] :|
|: A |\
D/D/D TF>D A>FEB | D<D TF>D A>D TF>D |\
TE>D TF>D A>FEB | A,<A, TB,>A, [D2-D2][DD] :|
|: f |\
d/d/d dB [e2B2][eB]f |\
A/A/A (TB>A) d2-df |\
d/d/d d>B Te>def | A<A TB>A d2d :|
|: (f/g/ |\
a)>fd>f e2-ef/g/ | a>fd>e d>efd |\
g>af>b Te>de>f | A<A TB>A d2d :|
|: f |\
D<D TF>D E2-Ef | D/D/D TF>D A2Ag |\
D<D TF>D E2Ef | D<DTF>D d>efd |\
g>ef>d e>Bd>B, | A,>A, TA,>A, [D2-D2][DD] :|
% - - - - - - - - - - - - - - - - - - - - - - - - -
V: 2 clef=bass middle=d
z |\
d2d2 e2E2 | A2A2 D2D2 | d2d2 e2E2 | A2A2 D2D :|\
|: z |
d2d2 d2e2 | d2d2 d2d2 |\
d2d2 d2e2 | A2A2 D2D :|\
|: z |\
d2d2 e2E2 |
A2A2 D2D2 |\
d2d2 e2e2 | A2A2 D2D :|\
|: z |\
d2d2 e2e2 | d2d2 d2d2 |\
g2f2 e2E2 | A2A2 D2D :|
|: z |\
d2d2 A2A2 | d2d2 d2d2 |\
d2d2 A2A2 | d2d2 d2d2 |\
g2f2 e2d2 | A2A2 D2D :|
% - - - - - - - - - - - - - - - - - - - - - - - - -

%%sep 1 1 500
%%sep 1 1 500
